icon/lg/codefactor.svg

<?xml version="1.0" encoding="UTF-8"?>
<svg viewBox="0 0 512 77" version="1.1" xmlns="http://www.w3.org/2000/svg" xmlns:xlink="http://www.w3.org/1999/xlink" preserveAspectRatio="xMidYMid" height="1em" width="1em">
  <defs>
    <linearGradient x1="-0.002%" y1="49.998%" x2="100.002%" y2="49.998%" id="linearGradient-1">
      <stop stop-color="#0AA1A5" offset="0%"/>
      <stop stop-color="#50D690" offset="100%"/>
    </linearGradient>
    <linearGradient x1="-0.002%" y1="49.998%" x2="100.002%" y2="49.998%" id="linearGradient-2">
      <stop stop-color="#0AA1A5" offset="0%"/>
      <stop stop-color="#50D690" offset="100%"/>
    </linearGradient>
  </defs>
  <g>
    <path d="M137.667197,31.7007153 C133.425331,31.7007153 128.552587,33.7571663 128.552587,49.7556582 C128.552587,65.75415 133.425331,67.80363 137.667197,67.80363 C140.305728,67.80363 143.826093,67.0124192 145.586276,60.8360951 C146.09516,59.0549994 147.817002,57.9082665 149.650381,57.9884333 C152.334223,58.0929986 154.146689,60.7524429 153.383362,63.356119 C150.999273,71.5122129 145.82329,75.496151 137.667197,75.496151 C125.865259,75.496151 120.372095,67.3156586 120.372095,49.7521727 C120.372095,32.1921722 125.865259,24.0116798 137.667197,24.0116798 C145.82329,24.0116798 150.999273,27.9921324 153.386848,36.1482263 C154.146689,38.7519024 152.334223,41.4113467 149.650381,41.5193976 C147.817002,41.5925933 146.09516,40.4493459 145.586276,38.6682502 C143.826093,32.4954116 140.305728,31.7007153 137.667197,31.7007153 Z M184.861005,55.9389533 C184.861005,47.9222798 182.107452,43.8546894 176.670056,43.8546894 C171.239631,43.8546894 168.486078,47.9222798 168.486078,55.9389533 C168.486078,63.9521412 171.239631,68.0162461 176.673541,68.0162461 C182.103966,68.0162461 184.861005,63.9521412 184.861005,55.9389533 L184.861005,55.9389533 Z M176.670056,36.37827 C187.137043,36.37827 192.902077,43.3248918 192.902077,55.9389533 C192.902077,68.5495292 187.137043,75.4926655 176.673541,75.4926655 C166.206554,75.4926655 160.445006,68.5495292 160.445006,55.9389533 C160.445006,43.3214063 166.206554,36.37827 176.673541,36.37827 L176.670056,36.37827 Z M223.863864,55.0745467 C223.863864,48.155809 220.622339,43.8546894 215.394074,43.8546894 C208.517162,43.8546894 207.488937,51.421732 207.488937,55.9389533 C207.488937,60.4492035 208.517162,68.0162461 215.394074,68.0162461 C220.622339,68.0162461 223.863864,63.718612 223.863864,56.7998743 L223.863864,55.0710612 L223.863864,55.0745467 Z M223.863864,40.4423749 L223.863864,25.2316084 C223.863864,23.0461935 225.617076,21.2755543 227.778092,21.2755543 C229.939108,21.2755543 231.69232,23.0461935 231.69232,25.2316084 L231.69232,70.9963573 C231.69232,73.0074967 230.078529,74.63523 228.095273,74.63523 C225.589191,74.5829473 224.477314,73.2654245 224.358806,71.0451545 C222.155964,73.9694976 218.795932,75.496151 214.470414,75.496151 C205.063022,75.496151 199.447865,68.1835506 199.447865,55.9389533 C199.447865,43.8721169 205.178044,36.37827 214.400704,36.37827 C218.374185,36.37827 221.636623,37.7968727 223.863864,40.4423749 Z M248.677211,51.4775002 L264.536282,51.4775002 C263.605651,46.3538002 261.001975,43.8546894 256.606747,43.8546894 C252.215004,43.8546894 249.611328,46.3503147 248.677211,51.4775002 L248.677211,51.4775002 Z M272.678434,51.756341 C272.713289,52.0177543 272.737688,52.2791676 272.758601,52.5336098 C273.033956,55.7472502 270.573186,58.5217163 267.380459,58.5217163 L248.42974,58.5217163 C249.004849,64.9943088 251.782801,68.0197316 257.10866,68.0197316 C259.698394,68.0197316 261.653766,67.2320063 263.023571,65.7506645 C265.215957,63.3840031 266.983111,62.5335386 269.318402,63.6419308 C271.346969,64.6004461 271.977847,66.7475204 270.618498,68.8667106 C267.83009,73.2061708 263.236187,75.496151 257.035464,75.496151 C246.24781,75.496151 240.308501,68.5251306 240.308501,55.8657576 C240.308501,43.2970078 246.094448,36.3747845 256.606747,36.3747845 C265.913059,36.3747845 271.489875,41.7982384 272.678434,51.7598265 L272.678434,51.756341 Z M287.073591,74.63523 C285.027597,74.63523 283.37198,72.9621851 283.37198,70.8952776 L283.37198,28.6090678 C283.37198,26.5456457 285.027597,24.8726008 287.070106,24.8726008 L309.990821,24.8726008 C312.036816,24.8726008 313.692433,26.5456457 313.692433,28.6090678 C313.692433,30.6759753 312.036816,32.3490202 309.990821,32.3490202 L291.343341,32.3490202 L291.343341,45.5800169 L305.721071,45.5800169 C307.76358,45.5800169 309.419197,47.2565473 309.419197,49.3199694 C309.419197,51.3868769 307.76358,53.0599218 305.721071,53.0599218 L291.343341,53.0599218 L291.343341,70.8952776 C291.343341,72.9586996 289.684239,74.63523 287.638244,74.63523 L287.070106,74.63523 L287.073591,74.63523 Z M342.796443,59.3896084 L334.194204,59.3896084 C331.172267,59.3896084 327.571734,60.1494496 327.571734,63.7743802 C327.571734,67.469021 331.008448,68.0197316 333.054442,68.0197316 C338.456983,68.0197316 342.569885,64.3390329 342.796443,59.3896084 L342.796443,59.3896084 Z M335.686002,36.3747845 C345.466344,36.3747845 350.635356,41.2266147 350.635356,50.396992 L350.635356,70.9336182 C350.635356,72.9796127 348.99368,74.628259 346.97557,74.621288 C344.183676,74.5655198 343.207733,72.9970402 343.270472,70.5711251 C340.611028,73.7324829 336.613148,75.496151 331.911195,75.496151 C324.392949,75.496151 319.530662,70.9231616 319.530662,63.8475759 C319.530662,56.3850986 324.738015,52.2721965 334.194204,52.2721965 L342.803414,52.2721965 L342.803414,50.7594851 C342.803414,46.0505608 340.496006,43.8546894 335.543096,43.8546894 C332.684978,43.8546894 330.645954,44.5378494 329.572417,46.0714739 C329.400333,46.314702 329.247661,46.5710979 329.115816,46.8382861 C328.42917,48.2115771 327.083763,49.1038678 325.567566,49.1038678 C322.751274,49.1038678 320.757562,46.1725537 321.918237,43.5828196 C322.126412,43.1137417 322.368725,42.6605706 322.643223,42.2269561 C324.706645,39.0098302 328.512822,36.3747845 335.686002,36.3747845 Z M376.898675,68.0197316 C380.802446,68.0197316 382.817071,65.3602873 383.772101,63.4153727 C384.389036,62.1571035 385.689132,61.4042333 387.076365,61.4042333 L387.843177,61.4042333 C390.582788,61.4042333 392.377826,64.3111488 391.175325,66.8032886 C388.655301,72.4428441 383.705876,75.496151 376.898675,75.496151 C366.435173,75.496151 360.670139,68.5460437 360.670139,55.9389533 C360.670139,43.4956818 366.281811,36.5664876 376.480414,36.37827 C382.346527,36.2737047 387.515539,39.5222002 390.52702,44.3322043 L390.642042,44.5308784 C392.175666,47.1101559 390.251664,50.4004776 387.275039,50.4004776 C385.800668,50.4004776 384.434348,49.5744116 383.806956,48.2255192 C383.611094,47.8029523 383.382686,47.3962466 383.123796,47.0090761 C381.722621,44.9421686 379.680112,43.8546894 376.898675,43.8546894 C371.46825,43.8546894 368.714697,47.9222798 368.714697,55.9389533 C368.714697,63.9556267 371.46825,68.0197316 376.898675,68.0197316 L376.898675,68.0197316 Z M424.946433,61.6168494 C424.946433,59.1874488 426.061796,57.8385563 428.627132,57.8768969 C430.840431,57.8768969 432.635469,59.6893622 432.635469,61.9270598 L432.635469,62.33835 C432.635469,70.9127051 427.605877,75.7436222 418.881645,75.48918 C411.952451,75.2835349 406.508084,69.34074 406.508084,62.33835 L406.508084,44.4995088 L401.210109,44.4995088 C399.223368,44.4995088 397.613062,42.875261 397.613062,40.8710927 C397.613062,38.8634388 399.223368,37.239191 401.206623,37.239191 L406.874063,37.239191 L406.971657,28.4591908 C406.996056,26.47245 408.595905,24.8726008 410.565218,24.8726008 L410.746464,24.8726008 C412.72972,24.8726008 414.33654,26.5003341 414.33654,28.5045024 L414.33654,37.239191 L426.476572,37.239191 C428.463313,37.239191 430.066648,38.8634388 430.066648,40.8710927 C430.066648,42.875261 428.463313,44.4995088 426.476572,44.4995088 L414.340026,44.4995088 L414.340026,61.6133639 C414.340026,67.2947455 417.156318,68.0197316 419.606631,68.0197316 C423.301272,68.0197316 424.946433,66.0469329 424.946433,61.6168494 L424.946433,61.6168494 Z M463.879582,55.9354678 C463.879582,47.9187943 461.126029,43.8546894 455.692119,43.8546894 C450.258208,43.8546894 447.504655,47.9222798 447.504655,55.9389533 C447.504655,63.9521412 450.258208,68.0162461 455.695604,68.0162461 C461.122543,68.0162461 463.876097,63.9521412 463.876097,55.9389533 L463.879582,55.9354678 Z M455.692119,36.37827 C466.159106,36.37827 471.920654,43.3248918 471.920654,55.9389533 C471.920654,68.5495292 466.159106,75.4926655 455.692119,75.4926655 C445.225131,75.4926655 439.463583,68.5495292 439.463583,55.9389533 C439.463583,43.3214063 445.225131,36.37827 455.692119,36.37827 Z M499.752453,36.37827 C507.647134,36.37827 511.99705,41.5368251 511.99705,50.902391 L511.99705,52.7706245 C511.99705,54.9560394 510.243839,56.7266786 508.082822,56.7266786 C505.921806,56.7266786 504.168594,54.9560394 504.168594,52.7706245 L504.168594,51.6204061 C504.168594,46.468822 502.181854,43.8546894 498.260655,43.8546894 C493.398368,43.8546894 489.999996,47.6992071 489.999996,53.2063133 L489.999996,70.6826614 C489.999996,72.8645908 488.250269,74.63523 486.089253,74.63523 C483.928237,74.63523 482.175025,72.8645908 482.175025,70.6826614 L482.175025,40.9721724 C482.175025,38.9958882 483.70865,37.2670751 485.660535,37.2426765 C488.623219,37.1973649 489.48414,38.8111561 489.522481,41.0627957 C491.90657,38.0199453 495.444362,36.3747845 499.752453,36.3747845 L499.752453,36.37827 Z" fill="#232344"/>
    <g>
      <path d="M16.56663,8.36522449 C16.56663,12.987011 12.8580471,16.730449 8.28505776,16.730449 C3.70858286,16.730449 0,12.987011 0,8.36522449 C0,3.74343796 3.70858286,0 8.28505776,0 C12.8580471,0 16.56663,3.74343796 16.56663,8.36522449 Z M16.56663,37.8596118 C16.56663,42.4779129 12.8580471,46.2248363 8.28505776,46.2248363 C3.70858286,46.2248363 1.77635684e-15,42.4779129 1.77635684e-15,37.8596118 C1.77635684e-15,33.2378253 3.70858286,29.4943873 8.28505776,29.4943873 C12.8580471,29.4943873 16.56663,33.2378253 16.56663,37.8596118 Z M16.56663,67.3505137 C16.56663,71.9723002 12.8580471,75.7157382 8.28505776,75.7157382 C3.70858286,75.7157382 1.77635684e-15,71.9723002 1.77635684e-15,67.3505137 C1.77635684e-15,62.7287271 3.70858286,58.9852892 8.28505776,58.9852892 C12.8580471,58.9852892 16.56663,62.7287271 16.56663,67.3505137 Z" fill="#F44A6A"/>
      <path d="M35.3012473,0 C30.728258,0 27.0196751,3.74343796 27.0196751,8.36522449 C27.0196751,12.987011 30.728258,16.730449 35.3012473,16.730449 L66.6708392,16.730449 C71.2438286,16.730449 74.9489259,12.987011 74.9489259,8.36522449 C74.9489259,3.74343796 71.2438286,0 66.6673537,0 L35.2977618,0 L35.3012473,0 Z" fill="url(#linearGradient-1)"/>
      <path d="M35.3012473,29.4909018 C30.728258,29.4909018 27.0196751,33.2378253 27.0196751,37.8561263 C27.0196751,42.4779129 30.728258,46.2248363 35.3012473,46.2248363 L53.2097988,46.2248363 C57.7827882,46.2248363 61.491371,42.4779129 61.491371,37.8596118 C61.491371,33.2378253 57.7827882,29.4943873 53.2097988,29.4943873 L35.3012473,29.4943873 L35.3012473,29.4909018 Z" fill="url(#linearGradient-2)"/>
    </g>
  </g>
</svg>

<svg width="512" height="77" xmlns="http://www.w3.org/2000/svg" preserveAspectRatio="xMidYMid"><defs><linearGradient x1="-.002%" y1="49.998%" x2="100.002%" y2="49.998%" id="a"><stop stop-color="#0AA1A5" offset="0%"/><stop stop-color="#50D690" offset="100%"/></linearGradient><linearGradient x1="-.002%" y1="49.998%" x2="100.002%" y2="49.998%" id="b"><stop stop-color="#0AA1A5" offset="0%"/><stop stop-color="#50D690" offset="100%"/></linearGradient></defs><path d="M137.667 31.7c-4.242 0-9.114 2.057-9.114 18.056 0 15.998 4.872 18.048 9.114 18.048 2.639 0 6.16-.792 7.92-6.968.508-1.781 2.23-2.928 4.063-2.848 2.684.105 4.497 2.764 3.733 5.368-2.384 8.156-7.56 12.14-15.716 12.14-11.802 0-17.295-8.18-17.295-25.744 0-17.56 5.493-25.74 17.295-25.74 8.156 0 13.332 3.98 15.72 12.136.76 2.604-1.053 5.263-3.737 5.371-1.833.074-3.555-1.07-4.064-2.85-1.76-6.174-5.28-6.968-7.919-6.968Zm47.194 24.239c0-8.017-2.754-12.084-8.19-12.084-5.431 0-8.185 4.067-8.185 12.084 0 8.013 2.754 12.077 8.188 12.077 5.43 0 8.187-4.064 8.187-12.077Zm-8.19-19.56c10.466 0 16.231 6.946 16.231 19.56 0 12.61-5.765 19.554-16.228 19.554-10.467 0-16.229-6.943-16.229-19.554 0-12.618 5.762-19.56 16.229-19.56h-.004Zm47.193 18.696c0-6.92-3.242-11.22-8.47-11.22-6.877 0-7.905 7.567-7.905 12.084 0 4.51 1.028 12.077 7.905 12.077 5.228 0 8.47-4.297 8.47-11.216V55.07v.004Zm0-14.633v-15.21c0-2.186 1.753-3.956 3.914-3.956 2.161 0 3.914 1.77 3.914 3.956v45.764c0 2.011-1.613 3.64-3.597 3.64-2.506-.053-3.618-1.37-3.736-3.59-2.203 2.923-5.563 4.45-9.889 4.45-9.407 0-15.022-7.312-15.022-19.557 0-12.067 5.73-19.56 14.953-19.56 3.973 0 7.236 1.418 9.463 4.063Zm24.813 11.036h15.86c-.931-5.124-3.535-7.623-7.93-7.623-4.392 0-6.996 2.495-7.93 7.623Zm24.001.278c.035.262.06.523.08.778.276 3.213-2.185 5.988-5.378 5.988h-18.95c.575 6.472 3.353 9.498 8.679 9.498 2.59 0 4.545-.788 5.915-2.27 2.192-2.366 3.96-3.216 6.294-2.108 2.029.958 2.66 3.106 1.3 5.225-2.788 4.34-7.382 6.63-13.583 6.63-10.787 0-16.726-6.972-16.726-19.631 0-12.569 5.785-19.491 16.298-19.491 9.306 0 14.883 5.423 16.071 15.385v-.004Zm14.396 22.88c-2.046 0-3.702-1.674-3.702-3.74V28.608c0-2.063 1.656-3.736 3.698-3.736h22.92c2.047 0 3.702 1.673 3.702 3.736 0 2.067-1.655 3.74-3.701 3.74h-18.648V45.58h14.378c2.043 0 3.698 1.677 3.698 3.74 0 2.067-1.655 3.74-3.698 3.74h-14.378v17.835c0 2.064-1.659 3.74-3.705 3.74h-.568.004Zm55.722-15.246h-8.602c-3.022 0-6.622.76-6.622 4.384 0 3.695 3.436 4.246 5.482 4.246 5.403 0 9.516-3.681 9.742-8.63Zm-7.11-23.015c9.78 0 14.95 4.852 14.95 14.022v20.537c0 2.046-1.642 3.694-3.66 3.687-2.792-.055-3.768-1.624-3.706-4.05-2.659 3.161-6.657 4.925-11.359 4.925-7.518 0-12.38-4.573-12.38-11.648 0-7.463 5.207-11.576 14.663-11.576h8.61V50.76c0-4.708-2.308-6.904-7.26-6.904-2.859 0-4.898.683-5.972 2.216-.172.244-.324.5-.456.767-.687 1.374-2.032 2.266-3.548 2.266-2.817 0-4.81-2.931-3.65-5.521.208-.47.45-.922.725-1.356 2.064-3.217 5.87-5.852 13.043-5.852Zm41.213 31.645c3.903 0 5.918-2.66 6.873-4.605.617-1.258 1.917-2.01 3.304-2.01h.767c2.74 0 4.535 2.906 3.332 5.398-2.52 5.64-7.47 8.693-14.276 8.693-10.464 0-16.229-6.95-16.229-19.557 0-12.443 5.612-19.373 15.81-19.56 5.867-.105 11.036 3.143 14.047 7.953l.115.199c1.534 2.58-.39 5.87-3.367 5.87-1.474 0-2.84-.827-3.468-2.175a8.99 8.99 0 0 0-.683-1.217c-1.401-2.067-3.444-3.154-6.225-3.154-5.43 0-8.184 4.067-8.184 12.084s2.753 12.08 8.184 12.08Zm48.047-6.403c0-2.43 1.116-3.778 3.681-3.74 2.213 0 4.008 1.812 4.008 4.05v.411c0 8.575-5.03 13.406-13.753 13.151-6.93-.205-12.374-6.148-12.374-13.15v-17.84h-5.298c-1.987 0-3.597-1.624-3.597-3.628 0-2.008 1.61-3.632 3.594-3.632h5.667l.098-8.78c.024-1.987 1.624-3.586 3.593-3.586h.181c1.984 0 3.59 1.627 3.59 3.632v8.734h12.14c1.987 0 3.59 1.624 3.59 3.632 0 2.004-1.603 3.629-3.59 3.629H414.34v17.113c0 5.682 2.816 6.407 5.267 6.407 3.694 0 5.34-1.973 5.34-6.403Zm38.934-5.682c0-8.016-2.754-12.08-8.188-12.08-5.434 0-8.187 4.067-8.187 12.084 0 8.013 2.753 12.077 8.19 12.077 5.428 0 8.181-4.064 8.181-12.077l.004-.004Zm-8.188-19.557c10.467 0 16.229 6.947 16.229 19.561 0 12.61-5.762 19.554-16.229 19.554-10.467 0-16.228-6.943-16.228-19.554 0-12.618 5.761-19.56 16.228-19.56Zm44.06 0c7.895 0 12.245 5.159 12.245 14.524v1.869c0 2.185-1.753 3.956-3.914 3.956-2.161 0-3.914-1.771-3.914-3.956v-1.15c0-5.152-1.987-7.766-5.908-7.766-4.863 0-8.261 3.844-8.261 9.351v17.477c0 2.182-1.75 3.952-3.91 3.952-2.162 0-3.915-1.77-3.915-3.952v-29.71c0-1.977 1.534-3.706 3.486-3.73 2.962-.046 3.823 1.568 3.861 3.82 2.385-3.043 5.922-4.688 10.23-4.688v.003Z" fill="#232344"/><path d="M16.567 8.365c0 4.622-3.709 8.365-8.282 8.365C3.71 16.73 0 12.987 0 8.365S3.709 0 8.285 0c4.573 0 8.282 3.743 8.282 8.365Zm0 29.495c0 4.618-3.709 8.365-8.282 8.365C3.71 46.225 0 42.478 0 37.86c0-4.622 3.709-8.366 8.285-8.366 4.573 0 8.282 3.744 8.282 8.366Zm0 29.49c0 4.622-3.709 8.366-8.282 8.366C3.71 75.716 0 71.972 0 67.35c0-4.622 3.709-8.366 8.285-8.366 4.573 0 8.282 3.744 8.282 8.366Z" fill="#F44A6A"/><path d="M35.301 0c-4.573 0-8.281 3.743-8.281 8.365s3.708 8.365 8.281 8.365h31.37c4.573 0 8.278-3.743 8.278-8.365S71.244 0 66.667 0h-31.37.004Z" fill="url(#a)"/><path d="M35.301 29.49c-4.573 0-8.281 3.748-8.281 8.366 0 4.622 3.708 8.369 8.281 8.369H53.21c4.573 0 8.281-3.747 8.281-8.365 0-4.622-3.708-8.366-8.281-8.366H35.3v-.003Z" fill="url(#b)"/></svg>
